X:868
M:C
L:1/8
K:B_
f|d>Bf>B d>c c<f|d>Bf>B g>Bf>B|d<bf<g d<fc<d|B<G F>E D2 D>B|
d>Bf>B d>c c<f|d>Bf>B g>Bf>B|d<bf<g d<fc<d|G<BF<B D2D||

